X:7004
T:Gentle Maiden
R:Waltz
C:Trad.
O:Ireland
M:3/4
Q:1/4=120
L:1/8
K:G
D2|"G"G3 A G2|"D"F2 E2 D2|"G"d4 d2|"Em"e3 f g2|"G"d3 c B2|"D"A4 G2|"C"E6|"D"F4 D2|
"G"G3 A G2|"D"F2 E2 D2|"G"d6|"Em"e3 f g2|"G"d3 c B2|"D"A3 cBA|"G"G6-|G4||
d2|"G"d3 e f2|"Em"g4 g2|"C"g6|"C"g2 f2 e2|"G"d3 c B2|"Am"A4 G2|"C"E6|"D"F4 D2|
"G"G3 A G2|"D"F3 E D2|"G"d6|"Em"e3 f g2|"G"d2 c2 B2|"D"A3 B A2|"G"G6-|G4|]

